vendor/shopware/storefront/Resources/app/storefront/dist/assets/icon/default/arrow-up-down.svg

<svg xmlns="http://www.w3.org/2000/svg" width="24" height="24" viewBox="0 0 24 24">
  <path fill="#758CA3" fill-rule="evenodd" d="M18,20.5857864 L19.2928932,19.2928932 C19.6834175,18.9023689 20.3165825,18.9023689 20.7071068,19.2928932 C21.0976311,19.6834175 21.0976311,20.3165825 20.7071068,20.7071068 L17.7071068,23.7071068 C17.3165825,24.0976311 16.6834175,24.0976311 16.2928932,23.7071068 L13.2928932,20.7071068 C12.9023689,20.3165825 12.9023689,19.6834175 13.2928932,19.2928932 C13.6834175,18.9023689 14.3165825,18.9023689 14.7071068,19.2928932 L16,20.5857864 L16,1 C16,0.44771525 16.4477153,0 17,0 C17.5522847,0 18,0.44771525 18,1 L18,20.5857864 Z M8,3.41421356 L8,23 C8,23.5522847 7.55228475,24 7,24 C6.44771525,24 6,23.5522847 6,23 L6,3.41421356 L4.70710678,4.70710678 C4.31658249,5.09763107 3.68341751,5.09763107 3.29289322,4.70710678 C2.90236893,4.31658249 2.90236893,3.68341751 3.29289322,3.29289322 L6.29289322,0.292893219 C6.68341751,-0.0976310729 7.31658249,-0.0976310729 7.70710678,0.292893219 L10.7071068,3.29289322 C11.0976311,3.68341751 11.0976311,4.31658249 10.7071068,4.70710678 C10.3165825,5.09763107 9.68341751,5.09763107 9.29289322,4.70710678 L8,3.41421356 Z"/>
</svg>

<svg xmlns="http://www.w3.org/2000/svg" width="24" height="24" viewBox="0 0 24 24"><path fill="#758CA3" fill-rule="evenodd" d="m18 20.5858 1.2929-1.293c.3905-.3904 1.0237-.3904 1.4142 0 .3905.3906.3905 1.0238 0 1.4143l-3 3c-.3905.3905-1.0237.3905-1.4142 0l-3-3c-.3905-.3905-.3905-1.0237 0-1.4142.3905-.3905 1.0237-.3905 1.4142 0L16 20.5858V1c0-.5523.4477-1 1-1s1 .4477 1 1v19.5858zM8 3.4142V23c0 .5523-.4477 1-1 1s-1-.4477-1-1V3.4142l-1.2929 1.293c-.3905.3904-1.0237.3904-1.4142 0-.3905-.3906-.3905-1.0238 0-1.4143l3-3c.3905-.3905 1.0237-.3905 1.4142 0l3 3c.3905.3905.3905 1.0237 0 1.4142-.3905.3905-1.0237.3905-1.4142 0L8 3.4142z"/></svg>
